src/lib/packages/icons/src/assets/line/fork-knife-alt.svg

<svg xmlns="http://www.w3.org/2000/svg" width="24" height="24" fill="none"><path fill="currentColor" d="M12.75 3v4c0 2.09-1.51 3.82-3.5 4.17V21c0 .41-.34.75-.75.75s-.75-.34-.75-.75v-9.83c-1.99-.36-3.5-2.09-3.5-4.17V3c0-.41.34-.75.75-.75s.75.34.75.75v4c0 1.52 1.23 2.75 2.75 2.75S11.25 8.52 11.25 7V3c0-.41.34-.75.75-.75s.75.34.75.75ZM9.5 8.25c.41 0 .75-.34.75-.75V3c0-.41-.34-.75-.75-.75s-.75.34-.75.75v4.5c0 .41.34.75.75.75Zm-2 0c.41 0 .75-.34.75-.75V3c0-.41-.34-.75-.75-.75s-.75.34-.75.75v4.5c0 .41.34.75.75.75ZM19.75 3v18c0 .41-.34.75-.75.75s-.75-.34-.75-.75v-5.25H15c-.69 0-1.25-.56-1.25-1.25V9c0-6.67 5.2-6.75 5.25-6.75.41 0 .75.34.75.75Zm-1.5.86c-1.11.29-3 1.35-3 5.14v5.25h3V3.86Z"/></svg>

<svg width="24" height="24" viewBox="0 0 24 24" fill="none" xmlns="http://www.w3.org/2000/svg">
<path d="M12.75 3V7C12.75 9.09 11.24 10.82 9.25 11.17V21C9.25 21.41 8.91 21.75 8.5 21.75C8.09 21.75 7.75 21.41 7.75 21V11.17C5.76 10.81 4.25 9.08 4.25 7V3C4.25 2.59 4.59 2.25 5 2.25C5.41 2.25 5.75 2.59 5.75 3V7C5.75 8.52 6.98 9.75 8.5 9.75C10.02 9.75 11.25 8.52 11.25 7V3C11.25 2.59 11.59 2.25 12 2.25C12.41 2.25 12.75 2.59 12.75 3ZM9.5 8.25C9.91 8.25 10.25 7.91 10.25 7.5V3C10.25 2.59 9.91 2.25 9.5 2.25C9.09 2.25 8.75 2.59 8.75 3V7.5C8.75 7.91 9.09 8.25 9.5 8.25ZM7.5 8.25C7.91 8.25 8.25 7.91 8.25 7.5V3C8.25 2.59 7.91 2.25 7.5 2.25C7.09 2.25 6.75 2.59 6.75 3V7.5C6.75 7.91 7.09 8.25 7.5 8.25ZM19.75 3V21C19.75 21.41 19.41 21.75 19 21.75C18.59 21.75 18.25 21.41 18.25 21V15.75H15C14.31 15.75 13.75 15.19 13.75 14.5V9C13.75 2.33 18.95 2.25 19 2.25C19.41 2.25 19.75 2.59 19.75 3ZM18.25 3.86C17.14 4.15 15.25 5.21 15.25 9V14.25H18.25V3.86Z" fill="currentColor"/>
</svg>
